X: 23
T: THE KIRKGATE HORNPIPE -- Second Version
T: Newcastle Hornpipe
B: "Old English Country Dances", Frank Kidson ed., William Reeves pub., London 1890
Z: 2010-9-26 John Chambers <jc:trillian.mit.edu>
M: C
L: 1/8
K: G
gd |\
B2B2 BcAB | G2G2 G2Bc | dBdB edcB | cBAG FAFD |
B2B2 Bd^ce | d2d2 d2AG | FAFD EGE^C | D2D2 D2 :|
|: AB |\
c2c2 c2AB | cBAG F2D2 | d2d2 d2ef | gfed cBAG |
e2e2 egfg | d2d2 dgfg | dBec BAGF | G2G2 G2 :|


%%sep 1 1 500

%%sep 1 1 500

